icon-themes/breeze_svg/cmd/sc_insertcellsdown.svg

<svg viewBox="0 0 16 16" xmlns="http://www.w3.org/2000/svg"><path d="m2 2v1 6h1v-2h3v2h1v-2h2v2h1v-2h3v2h1v-6-1zm1 1h3v3h-3zm4 0h2v3h-2zm3 0h3v3h-3zm0 7 2 4 2-4z" fill="#4d4d4d"/><path d="m2 9v1h1 .28125l-.28125.28125-1 1v1.4375l1-1 1.71875-1.71875h1.28125 1 .28125l-.28125.28125-1 1-1.71875 1.71875h-2.28125v1h1.28125 1.4375 2.5625 1.4375.28125v-.28125-1.4375l-.71875.71875h-2.5625l.28125-.28125 1-1 1.71875-1.71875h.28125v-1h-2-1-1.71875-1.28125z" fill="#1d99f3"/></svg>

<svg xmlns="http://www.w3.org/2000/svg" viewBox="0 0 16 16">
 <path 
     style="fill:#4d4d4d" 
     d="M 2 2 L 2 3 L 2 9 L 3 9 L 3 7 L 6 7 L 6 9 L 7 9 L 7 7 L 9 7 L 9 9 L 10 9 L 10 7 L 13 7 L 13 9 L 14 9 L 14 3 L 14 2 L 2 2 z M 3 3 L 6 3 L 6 6 L 3 6 L 3 3 z M 7 3 L 9 3 L 9 6 L 7 6 L 7 3 z M 10 3 L 13 3 L 13 6 L 10 6 L 10 3 z M 10 10 L 12 14 L 14 10 L 10 10 z "
     />
 <path 
     style="fill:#1d99f3" 
     d="M 2 9 L 2 10 L 3 10 L 3.28125 10 L 3 10.28125 L 2 11.28125 L 2 12.71875 L 3 11.71875 L 4.71875 10 L 6 10 L 7 10 L 7.28125 10 L 7 10.28125 L 6 11.28125 L 4.28125 13 L 2 13 L 2 14 L 3.28125 14 L 4.71875 14 L 7.28125 14 L 8.71875 14 L 9 14 L 9 13.71875 L 9 12.28125 L 8.28125 13 L 5.71875 13 L 6 12.71875 L 7 11.71875 L 8.71875 10 L 9 10 L 9 9 L 7 9 L 6 9 L 4.28125 9 L 3 9 L 2 9 z "
     />
 </svg>
